icons/tapcart-logo.svg

<?xml version="1.0" encoding="UTF-8"?>
<svg width="512px" height="114px" viewBox="0 0 512 114" version="1.1" xmlns="http://www.w3.org/2000/svg" xmlns:xlink="http://www.w3.org/1999/xlink" preserveAspectRatio="xMidYMid">
    <g>
        <path d="M98.251874,16.1995574 C76.496754,-5.40634533 41.1234338,-5.39335861 19.3803848,16.1995574 L1.22747886,34.2281189 C-0.40915962,35.8534564 -0.40915962,38.5177315 1.22747886,40.1440683 C2.8671351,41.772403 5.55094057,41.772403 7.18757902,40.1450672 L25.3414909,22.1175048 C43.8062332,3.78025913 73.8401086,3.79224687 92.291774,22.1175048 C110.756516,40.4537517 110.744445,70.2792476 92.291774,88.6055046 L74.137862,106.634066 C72.5002177,108.259404 72.5002177,110.924678 74.1418857,112.554012 C75.7775182,114.17835 78.4613238,114.17835 80.0979623,112.554012 L98.251874,94.5244512 C119.994923,72.9335329 120.006994,37.8054602 98.251874,16.1995574 M77.1151537,37.4897286 C64.8934881,25.4216994 45.0233145,25.4316664 32.8107326,37.4947121 L8.30684282,61.6915694 C6.6606675,63.3201753 6.6606675,65.9773743 8.3038149,67.5990031 C9.94898089,69.224619 12.6418048,69.224619 14.2869708,67.5990031 L38.7908604,43.402146 C47.7121011,34.5913285 62.2147944,34.589335 71.1340164,43.3991561 C80.0552572,52.2079801 80.0512199,66.5285487 71.1309887,75.3383695 L46.6270989,99.5372201 C44.9819331,101.161839 44.9819331,103.820035 46.6270989,105.445651 C48.269237,107.06728 50.9610516,107.06728 52.6072269,105.442661 L77.1111165,81.2448067 C89.3247077,69.181761 89.3368194,49.5597514 77.1151537,37.4897286 M52.5157471,62.3837957 C50.8838621,60.7428636 48.2137774,60.7428636 46.5848958,62.379769 L25.2662678,83.8185987 C23.6363849,85.4575176 23.6363849,88.1413981 25.2692712,89.783337 C26.9011564,91.4282961 29.5702398,91.4282961 31.2001227,89.7893772 L52.5207531,68.3495407 C54.1616486,66.6975347 54.1486336,64.0257345 52.5157471,62.3837957" fill="#373AAF"></path>
        <path d="M285.601106,39.8202929 C299.694978,39.8202929 311.160633,51.3981078 311.160633,65.629732 C311.160633,79.9151092 299.694978,91.5377184 285.601106,91.5377184 C279.107268,91.5377184 272.86777,88.9476164 268.243155,84.4592348 L268.243155,108.456001 C268.243155,110.604133 266.426414,112.350112 264.192832,112.350112 C262.052106,112.350112 260.243439,110.566307 260.243439,108.456001 L260.243439,43.7144046 C260.243439,41.6031032 262.052106,39.8202929 264.192832,39.8202929 C266.426414,39.8202929 268.243155,41.5672677 268.243155,43.7144046 L268.243155,46.8450233 C272.886947,42.3914818 279.12947,39.8202929 285.601106,39.8202929 Z M168.107994,19.9101465 C170.273036,19.9101465 172.245004,21.7630037 172.245004,23.7987611 L172.245004,40.494357 L177.105034,40.494357 C179.164489,40.494357 181.038914,42.3472141 181.038914,44.3829715 C181.038914,46.4187289 179.163483,48.2725802 177.104029,48.2725802 L172.243998,48.2725802 L172.243998,82.4540194 C172.243998,83.9042975 173.879092,84.5603523 174.37485,84.5603523 C176.411175,84.5603523 178.410294,86.5374623 178.410294,88.5513512 C178.410294,90.5503297 176.449388,92.4399657 174.37485,92.4399657 C168.559505,92.4399657 164.173109,88.1477783 164.173109,82.4550134 L164.173109,48.2725802 L159.515202,48.2725802 C155.7552,48.2725802 155.588089,45.6921933 155.580662,44.5348263 L155.580662,44.2311223 C155.588089,43.073836 155.7552,40.494357 159.515202,40.494357 L164.173109,40.494357 L164.173109,23.7987611 C164.173109,21.7630037 166.04854,19.9101465 168.107994,19.9101465 Z M237.95488,39.8202929 C240.142597,39.8202929 241.856674,41.550183 241.856674,43.7593677 L241.856674,88.500891 C241.856674,90.6355634 240.069806,92.4399657 237.95488,92.4399657 C235.839954,92.4399657 234.053086,90.6355634 234.053086,88.500891 L234.053086,85.1951699 C229.478225,89.7877361 223.382731,92.4399657 217.104762,92.4399657 C203.456958,92.4399657 192.353846,80.6378458 192.353846,66.1291223 C192.353846,51.6224128 203.456958,39.8202929 217.104762,39.8202929 C223.411648,39.8202929 229.505148,42.4382874 234.053086,46.9744659 L234.053086,43.7593677 C234.053086,41.550183 235.766166,39.8202929 237.95488,39.8202929 Z M350.942158,39.8202929 C356.674162,39.8202929 362.297359,41.6552105 366.889401,45.0052549 L367.688869,45.6121021 C368.431891,46.1286523 368.97731,47.0308536 369.114422,48.0357608 C369.262623,49.1101453 368.938999,50.2248066 368.226224,51.0937794 C366.793615,52.704853 364.487928,52.9726937 362.822433,51.7613679 C359.390623,49.0235502 355.301484,47.59775 350.944172,47.59775 C340.377543,47.59775 331.78088,55.8655775 331.78088,66.0274235 C331.78088,76.4188472 340.199098,84.5587958 350.944172,84.5587958 C355.201675,84.5587958 359.407761,83.1249403 362.790171,80.520036 C364.488938,79.2845442 366.794622,79.5513781 368.186906,81.1181471 C368.921861,82.0132998 369.235401,83.0574767 369.107365,84.1066884 C368.976302,85.1901353 368.390555,86.1728901 367.45699,86.871693 C362.860743,90.4573386 356.988152,92.4399657 350.944172,92.4399657 C335.773232,92.437952 323.889932,80.8362092 323.889932,66.0274235 C323.889932,51.3314128 335.772224,39.8202929 350.942158,39.8202929 Z M424.652023,39.8202929 C426.839872,39.8202929 428.553055,41.550183 428.553055,43.7593677 L428.553055,88.500891 C428.553055,90.6355634 426.766078,92.4399657 424.652023,92.4399657 C422.537965,92.4399657 420.750988,90.6355634 420.750988,88.500891 L420.750988,85.1941628 C416.173858,89.7877361 410.078992,92.4399657 403.80164,92.4399657 C390.153011,92.4399657 379.050226,80.6378458 379.050226,66.1291223 C379.050226,51.6224128 390.153011,39.8202929 403.80164,39.8202929 C410.107912,39.8202929 416.201779,42.4392941 420.750988,46.9754729 L420.750988,43.7593677 C420.750988,41.550183 422.46517,39.8202929 424.652023,39.8202929 Z M474.084008,39.8202929 C476.310573,39.8202929 478.055884,41.5535662 478.055884,43.7670711 C478.055884,45.9069271 476.236454,47.714858 474.084008,47.714858 C469.010528,47.714858 464.787873,50.1059276 460.794677,55.2411784 C458.512523,58.2670921 456.878579,61.6528011 455.843586,64.1801654 L455.375774,65.3666792 L455.006419,66.3762984 L454.880523,66.6658499 L454.88763,88.4931875 C454.88763,90.6693635 453.151457,92.4399657 451.017286,92.4399657 C448.730819,92.4399657 446.939818,90.7066924 446.939818,88.4931875 L446.939818,43.7680798 C446.939818,41.5545749 448.730819,39.8213019 451.017286,39.8213019 C453.151457,39.8213019 454.88763,41.5919039 454.88763,43.7680798 L454.88763,49.7750118 C458.55999,45.1885973 464.833559,39.8202929 474.084008,39.8202929 Z M499.069264,19.9101465 C501.233215,19.9101465 503.204099,21.7639724 503.204099,23.7987078 L503.204099,40.4940748 L508.063938,40.4940748 C510.124317,40.4940748 512.000679,42.3479007 512.000679,44.3826361 C512.000679,46.4183655 510.125322,48.2721915 508.065949,48.2721915 L503.20611,48.2721915 L503.20611,82.4541562 C503.20611,83.7835598 504.579989,84.4456039 505.190814,84.5467126 L505.336878,84.5604602 C507.373123,84.5604602 509.372163,86.536549 509.372163,88.5504105 C509.372163,90.5493615 507.410329,92.4399657 505.336878,92.4399657 C499.520758,92.4399657 495.134534,88.1468428 495.134534,82.4551502 L495.134534,48.2721915 L490.475806,48.2721915 C487.537174,48.2721915 486.793805,46.6956814 486.605759,45.454263 L486.561395,45.0554899 L486.544668,44.6972717 L486.544668,44.0684541 L486.561395,43.7105571 L486.605759,43.3120098 C486.793805,42.0711396 487.537174,40.4940748 490.475806,40.4940748 L495.134534,40.4940748 L495.134534,23.7987078 C495.134534,21.7639724 497.010897,19.9101465 499.069264,19.9101465 Z M217.812443,46.9310595 C208.454009,46.9310595 200.840045,55.2465515 200.840045,65.4679082 C200.840045,75.6348689 208.454009,83.9070458 217.812443,83.9070458 C227.170878,83.9050312 234.784842,75.6338616 234.784842,65.4679082 C234.784842,55.2465515 227.170878,46.9310595 217.812443,46.9310595 Z M286.308544,48.3532129 C276.831736,48.3532129 269.109855,55.7961059 268.729638,65.297358 L268.73066,66.0309432 C268.73066,75.7925771 276.617674,83.8101257 286.315514,83.9069643 L286.959244,83.8898503 C296.449581,83.4652416 304.088802,75.583112 304.088802,66.0309432 C304.088802,56.2831986 296.113441,48.3532129 286.308544,48.3532129 Z M404.508824,46.9310595 C395.150389,46.9310595 387.536424,55.2465515 387.536424,65.4679082 C387.536424,75.6348689 395.150389,83.9070458 404.508824,83.9070458 C413.867259,83.9050312 421.481223,75.6338616 421.481223,65.4679082 C421.481223,55.2465515 413.867259,46.9310595 404.508824,46.9310595 Z" fill="#000000"></path>
    </g>
</svg>

<svg xmlns="http://www.w3.org/2000/svg" viewBox="0 0 512.001 113.772">
  <path fill="#373aaf" d="M98.252 16.2C76.497-5.406 41.123-5.393 19.38 16.2L1.227 34.228a4.178 4.178 0 0 0 0 5.916c1.64 1.628 4.324 1.628 5.96.001l18.154-18.027c18.465-18.338 48.5-18.326 66.95 0 18.466 18.336 18.453 48.161 0 66.488l-18.153 18.028a4.177 4.177 0 0 0 .004 5.92c1.635 1.624 4.32 1.624 5.956 0l18.154-18.03c21.743-21.59 21.755-56.719 0-78.324M77.115 37.49c-12.222-12.068-32.092-12.058-44.304.005L8.307 61.692a4.153 4.153 0 0 0-.003 5.907c1.645 1.626 4.338 1.626 5.983 0l24.504-24.197c8.921-8.81 23.424-8.813 32.343-.003 8.921 8.809 8.917 23.13-.003 31.94L46.627 99.536a4.154 4.154 0 0 0 0 5.909c1.642 1.621 4.334 1.621 5.98-.003l24.504-24.198c12.214-12.063 12.226-31.685.004-43.755m-24.6 24.894a4.192 4.192 0 0 0-5.93-.004L25.266 83.819c-1.63 1.639-1.63 4.322.003 5.964a4.186 4.186 0 0 0 5.931.006l21.32-21.44a4.238 4.238 0 0 0-.004-5.965"/>
  <path d="M285.601 39.82c14.094 0 25.56 11.578 25.56 25.81 0 14.285-11.466 25.908-25.56 25.908-6.494 0-12.733-2.59-17.358-7.079v23.997c0 2.148-1.817 3.894-4.05 3.894-2.14 0-3.95-1.784-3.95-3.894V43.714c0-2.11 1.81-3.894 3.95-3.894 2.233 0 4.05 1.747 4.05 3.894v3.131c4.644-4.454 10.886-7.025 17.358-7.025zM168.108 19.91c2.165 0 4.137 1.853 4.137 3.889v16.695h4.86c2.06 0 3.934 1.853 3.934 3.889 0 2.036-1.876 3.89-3.935 3.89h-4.86v34.181c0 1.45 1.635 2.106 2.13 2.106 2.037 0 4.036 1.977 4.036 3.991 0 2-1.96 3.889-4.035 3.889-5.815 0-10.202-4.292-10.202-9.985V48.273h-4.658c-3.76 0-3.927-2.58-3.934-3.738v-.304c.007-1.157.174-3.737 3.934-3.737h4.658V23.8c0-2.036 1.876-3.889 3.935-3.889zm69.847 19.91c2.188 0 3.902 1.73 3.902 3.94V88.5c0 2.136-1.787 3.94-3.902 3.94s-3.902-1.804-3.902-3.94v-3.305c-4.575 4.593-10.67 7.245-16.948 7.245-13.648 0-24.751-11.802-24.751-26.31s11.103-26.31 24.75-26.31c6.308 0 12.401 2.618 16.95 7.154V43.76c0-2.209 1.712-3.939 3.9-3.939zm112.987 0a27.154 27.154 0 0 1 15.947 5.185l.8.607c.743.517 1.288 1.419 1.425 2.424.149 1.074-.175 2.189-.888 3.058-1.432 1.61-3.738 1.879-5.404.667-3.431-2.737-7.52-4.163-11.878-4.163-10.566 0-19.163 8.268-19.163 18.43 0 10.39 8.418 18.53 19.163 18.53 4.258 0 8.464-1.433 11.846-4.038 1.699-1.235 4.005-.969 5.397.598.735.895 1.048 1.94.92 2.989-.13 1.083-.716 2.066-1.65 2.765-4.596 3.585-10.469 5.568-16.513 5.568-15.17-.002-27.054-11.604-27.054-26.413 0-14.696 11.882-26.207 27.052-26.207zm73.71 0c2.188 0 3.901 1.73 3.901 3.94V88.5c0 2.136-1.787 3.94-3.901 3.94s-3.901-1.804-3.901-3.94v-3.306c-4.577 4.594-10.672 7.246-16.95 7.246-13.648 0-24.75-11.802-24.75-26.31s11.102-26.31 24.75-26.31c6.307 0 12.4 2.62 16.95 7.155V43.76c0-2.209 1.714-3.939 3.901-3.939zm49.432 0c2.227 0 3.972 1.734 3.972 3.947 0 2.14-1.82 3.948-3.972 3.948-5.073 0-9.296 2.39-13.29 7.526-2.281 3.026-3.915 6.412-4.95 8.94l-.468 1.186-.37 1.01-.125.289.007 21.827c0 2.176-1.737 3.947-3.87 3.947-2.287 0-4.078-1.733-4.078-3.947V43.768c0-2.213 1.79-3.947 4.077-3.947 2.134 0 3.87 1.77 3.87 3.947v6.007c3.673-4.586 9.946-9.955 19.197-9.955zm24.985-19.91c2.164 0 4.135 1.854 4.135 3.889v16.695h4.86c2.06 0 3.937 1.854 3.937 3.889 0 2.035-1.876 3.89-3.935 3.89h-4.86v34.181c0 1.33 1.374 1.992 1.985 2.093l.146.013c2.036 0 4.035 1.977 4.035 3.99 0 2-1.962 3.89-4.035 3.89-5.816 0-10.202-4.293-10.202-9.985V48.272h-4.66c-2.938 0-3.681-1.576-3.87-2.818l-.044-.399-.016-.358v-.629l.016-.357.045-.399c.188-1.24.931-2.818 3.87-2.818h4.659V23.8c0-2.035 1.876-3.889 3.934-3.889zM217.812 46.931c-9.358 0-16.972 8.316-16.972 18.537 0 10.167 7.614 18.439 16.972 18.439 9.359-.002 16.973-8.273 16.973-18.44 0-10.22-7.614-18.536-16.973-18.536zm68.497 1.422c-9.477 0-17.2 7.443-17.58 16.944l.002.734c0 9.762 7.887 17.78 17.584 17.876l.644-.017c9.49-.425 17.13-8.307 17.13-17.86 0-9.747-7.976-17.677-17.78-17.677zm118.2-1.422c-9.359 0-16.973 8.316-16.973 18.537 0 10.167 7.614 18.439 16.973 18.439 9.358-.002 16.972-8.273 16.972-18.44 0-10.22-7.614-18.536-16.972-18.536z"/>
</svg>
